!!!SOCIAL_FUNCTION:	Mide Songs (?)
!!!PDT:	1913
!!!OTL: No_154_The_Noise_of_the_Village.krn
!!!REG: Great_Lakes
!!!LANG: Non-Tone
!!!LING_GROUP: Algonquin
**kern	**kern
*staff2	*staff1
*clefF4	*clefF4
*k[b-]	*k[b-]
*M3/2	*M3/2
8r	16c\LL
.	16c\JJ
=1	=1
8GG/L	4c\
8GG/	.
8GG/	4c\
8GG/J	.
8GG/L	4c\
8GG/	.
8GG/	4c\
8GG/J	.
8GG/L	8.c\L
8GG/	.
.	16A\K
8GG/	8G\
8GG/J	16A\L
.	16A\JJ
=2	=2
1.r	4A\
.	4G\
.	4F\
.	4F\
.	8.F\L
.	16D\K
.	8D\
.	16F\L
.	16F\JJ
=3	=3
*M2/2	*M2/2
1r	4F\
.	4F\
.	4F\
.	4F\
=4	=4
1r	4F\
.	4F\
.	8.F\L
.	16D\K
.	8F;\
.	8c\J
=5||	=5||
*M3/2	*M3/2
1.r	2c\
.	12c\L
.	[12A\
.	12A\J]
.	12A\L
.	[12G\
.	12G\J]
.	4.G\
.	16c\LL
.	16c\JJ
=6	=6
1.r	12c\L
.	[12A\
.	12A\J]
.	4G\
.	4F\
.	4F\
.	8.F\L
.	16D\K
.	8D\
.	16F\L
.	16F\JJ
=7	=7
1.r	4F\
.	4F\
.	4F\
.	4F\
.	4F\
.	4F\
==	==
*-	*-
